X:1
T:Title
%%score { 1 | 2 }
L:1/8
M:3/4
K:Ab
V:1 treble nm="Grand Piano"
V:2 bass 
V:1
 z2 z2[Q:1/4=94] [CE][CA] | [Ec]3 [CEA] [B,DG][DB] | [CA]2 [CE]2 [CE][C=D] | [CE]2 [Ec]2 [EB][EA] | %4
[M:2/4] B4 |[M:1/4] cB |[M:3/4] [CA]3 [CA] [DB][Ec] | [Fd]2 [DF]2 [EG]F | Ec BA [EAc][DGB] | %9
[M:2/4] [CA]4 |[M:1/4] AA |[M:3/4] [Fd]2 [Fd]2 [FA][FB] | [Ec]2 [Ec]2 cd | e3 c [EBd][EAc] | %14
[M:2/4] [EGB]4 |[M:1/4] [EAc][DEB] |[M:3/4] [CEA]3 [CA] [DB][Ec] | [Fd]2 [DF]2 [EG]F | %18
 Ec BA [EAc][DEB] |[M:2/4] [CEA]4 |] %20
V:2
 z2 z2 [A,,A,][A,,A,] | [A,,A,]3 A,, E,[E,G,] | [A,,A,]2 [A,,A,]2 [A,,A,][A,,A,] | %3
 [A,,A,]2 [A,,A,]2 [B,,G,][C,A,] |[M:2/4] [E,G,E]4 |[M:1/4] [E,G,E][E,D] | %6
[M:3/4] [A,,E,]3 [A,,E,] [A,,E,][A,,A,] | [D,A,]2 [D,A,]2 [D,A,][D,A,D] | %8
 [E,A,C][E,A,E] [E,DE][E,CE] E,E, |[M:2/4] A,,4 |[M:1/4] A,A, | %11
[M:3/4] [D,A,]2 [D,A,]2 [D,A,][D,A,] | [A,,A,]2 [A,,A,]2[K:treble] [A,E][A,B,E] | %13
 [A,CA]3 [A,EA] G,[K:bass]A, |[M:2/4] E,4 |[M:1/4] E,E, |[M:3/4] A,,3 [A,,A,] [A,,A,][A,,A,] | %17
 [D,A,]2 [D,A,]2 [D,A,][D,A,D] | [E,A,C][E,A,E] [E,DE][E,CE] E,E, |[M:2/4] A,,4 |] %20

